!!!!SEGMENT: T579_Pro-w37p15s2-4.krn
!!!COM: Prokofiev, Sergey (Sergeyevich)
!!!OTL: II: Scherzo: Presto
!!!AGN: Instrumental
!!!AGN-sub: Chamber
!!!CNT: Russian
!!!ODT: 1944
!!!OPR: Sonata No. 2 in D Major for Violin and Piano
!!!filename: T579_Pro-w37p15s2-4.krn
**kern	**kern	**dynam	**kern	**dynam
*grp:A	*grp:A	*	*grp:B	*
*part2	*part2	*	*part1	*
*staff3	*staff2	*staff2/3	*staff1	*
*ICklav	*ICklav	*	*ICstr	*
*Ipiano	*Ipiano	*	*Ivioln	*
*I"Piano	*I"Piano	*	*I"Violin	*
*I'pf	*I'pf	*	*I'vn	*
*clefF4	*clefG2	*	*clefG2	*
*k[]	*k[]	*	*k[]	*
*C:	*C:	*	*C:	*
!!LO:TX:tempo:a:t=[Presto]\n{[quarter]=270}
*M3/4	*M3/4	*	*M3/4	*
=1	=1	=1	=1	=1
!	!	!	!LO:TX:t=[[half-dot]=90]	!
4AA	4r	p	(8arouL 8aayy	p
.	.	.	8bJ	.
4r	4B 4c 4a	.	8cc)	.
.	.	.	8r	.
4C	4r	.	(8aLv	.
.	.	.	8bJ	.
=2	=2	=2	=2	=2
4r	4A 4c 4f	.	8cc)	.
.	.	.	8r	.
4D	4r	.	(8aaL	.
.	.	.	8ff)	.
4DD	4r	.	(8cc'	.
.	.	.	8dd'J)	.
=3	=3	=3	=3	=3
4AA	4r	.	(8aL	.
.	.	.	8bJ	.
4r	4B 4c 4e	.	8cc)	.
.	.	.	8r	.
4C	4r	.	(8aL	.
.	.	.	8bJ	.
=4	=4	=4	=4	=4
4r	4A 4c 4f	.	8cc)	.
.	.	.	8r	.
4D	4r	.	(8aaL	.
.	.	.	8ff)	.
4DD	4r	.	(8cc'	.
.	.	.	8dd'J)	.
=5	=5	=5	=5	=5
!	!	!	!LO:TX:a:t=spicc.	!
4AA	4r	.	8a'yL	.
.	.	.	8b'y	.
4r	4B 4c 4e	.	8cc'y	.
.	.	.	8dd'y	.
4GG	4r	.	8cc'y	.
.	.	.	8dd'yJ	.
=6	=6	=6	=6	=6
4r	4B 4d#X 4f#X	<	8dd#X'yL	<
.	.	.	8ff#X'y	.
4FF#X	4r	.	8bb'y	.
.	.	.	8ddd#X'y	.
4r	4f# 4b 4dd#X	[	8ccc#X'y	.
.	.	.	8ddd#'yJ	[
=7	=7	=7	=7	=7
4r	4g#X^ 4b 4ee	mf	8eee'y^L	mf
.	.	.	8bb'y	.
(8qF##X/	.	.	.	.
4G#X)	4r	.	8gg#X'y	.
.	.	.	8ee'y	.
4EE	4r	.	8ee'y	.
.	.	.	8ee'yJ	.
=8	=8	=8	=8	=8
4r	4e	.	8ee'yL	.
.	.	.	8eee'y	.
4D	4E	>	8eee'y	.
.	.	.	8eee'yJ	.
!	!	!	!LO:TX:a:t=pizz.	!
4DD	4r	]]	4ee'"	.
=9	=9	=9	=9	=9
!	!	!	!LO:TX:a:t=arco	!
4CC	4r	p	(8eeuL	p
.	.	.	8ffJ	.
4r	4c 4e 4g	.	8gg)	.
.	.	.	8r	.
4CC)	4G	.	(8eeL	.
.	.	.	8ffJ	.
=10	=10	=10	=10	=10
4EE	4r	.	8gg)	.
.	.	.	8r	.
4r	4B-X 4d 4g	.	(8dddL	.
.	.	.	8bb-X)	.
4GG	4r	.	(8ff'	.
.	.	.	8gg'J)	.
=11	=11	=11	=11	=11
4C	4r	.	(8eeroL 8eeeyy	.
.	.	.	8ffJ	.
4r	4c 4e 4g	.	8gg)	.
.	.	.	8r	.
4CC	4G	.	(8eeL	.
.	.	.	8ffJ	.
=12	=12	=12	=12	=12
4EE	4r	.	8gg)	.
.	.	.	8r	.
4r	4B-X 4d 4g	.	(8dddL	.
.	.	.	8bb-X)	.
4GG	4r	.	(8ff'	.
.	.	.	8gg'J)	.
=13	=13	=13	=13	=13
4AA-X^	4A-X^	.	8aa-X'^	.
.	.	.	8r	.
4r^	4c 4e-X	.	8aa-uL	.
.	.	.	8ee-X	.
4G	4r	.	8cc	.
.	.	.	8ee-J	.
=14	=14	=14	=14	=14
4F'	4r	.	8aa-X'	.
.	.	.	8r	.
4r'	4f 4a-X	.	8aa-uL	.
.	.	.	8ff	.
4F	4r	.	8cc	.
.	.	.	8ffJ	.
=15	=15	=15	=15	=15
4E-X'	4r	.	8aa-X'	.
.	.	.	8r	.
4r'	4gg 4aa-X	.	8aa-uL	.
.	.	.	8gg	.
4E-	4r	.	8ee-X	.
.	.	.	8ggJ	.
=16	=16	=16	=16	=16
4D-X'	4r	.	8aa-X'	.
.	.	.	8r	.
4r'	4fff 4aaa-X	.	8aa-L	.
.	.	.	8ff	.
4D-	4r	.	8dd-X	.
.	.	.	8ffJ	.
=17	=17	=17	=17	=17
4C'	4r	.	8aa-X'	.
.	.	.	8r	.
!	!	!	!LO:TX:a:t=II	!
.	(8qaa-X/	.	.	.
!	!	!LO:HP:t=poco cresc.	!	!LO:HP:t=poco cresc.
4r'	4a-X 4ee-X)	<	8aa-L	<
.	.	.	8aa-	.
4C	4r	.	8ee-X	.
.	.	.	8ccJ	.
=18	=18	=18	=18	=18
4C-X'	4r	.	8a-X'	.
.	.	.	8r	.
.	(8qa-X/	.	.	.
4r'	4F 4e-X)	.	8aa-XL	.
.	.	.	8aa-	.
4C-	4r	.	8ff	.
.	.	.	8ee-XJ	.
=	=	=	=	=
*-	*-	*-	*-	*-
!!!system-decoration: s1[({(s2,s3)})]
!!!RDF**kern: > = above
!!!RDF**kern: < = below
!!!EED: Rafael Laurindo
!!!EEV: 2021/08/20
!!!EED2: Gabriella Vici
!!!Suter_Work_ID: Pro-37
!!!Suter_Example_Number: 579
!!!Suter_Example_ID: Pro-37/15/lignes 2 à 4
!!!Premiere_Location: Moscow,Russia
!!!Other_Tsigs: none
!!!Full_Unit_Duration: 4:47
!!!First_Publication_Year: 1946
!!!First_Public_Performance_Year: 1944
!!!Example_Total_Measures: 18
!!!Example_Timestamp_Duration: 12
!!!Example_Start_Tsig_Type: simple triple
!!!Example_Start_Tsig_Mean_Beat_Rate: 270
!!!Example_Start_Tsig_Beat_Rate: 270
!!!Example_Start_Tsig_Beat: quarter
!!!Example_Start_Tsig: 3/4
!!!Example_Start_Timestamp: 0:04
!!!Example_Start_Tempo_Expression: [Presto]
!!!Example_Start_Notated_Beat_Rate: {270}
!!!Example_Start_Notated_Beat: {quarter}
!!!Example_Start_Measure: 7
!!!Example_Metadata_Validated: Y
!!!Example_End_Timestamp: 0:16
!!!Example_End_Measure: 24
!!!Example_Dataset: T
!!!Editorial_Comments: No notated tempo. Example Start Notated Beat and Example Start Notated Beat Rate {quarter=270} calculated from recording (https://ubc-naxosmusiclibrary-com.eu1.proxy.openathens.net/catalogue/item.asp?cid=825646062362). Example Start Tempo Expression [Presto] based on most recent notated tempo expression (SWFU, m. 1)
!!!Death_Place: Moscow,Russia
!!!Death_Date: 5-Mar-1953
!!!Changing_Tsig: no
!!!Birth_Place: Sontsovka,Ukraine
!!!Birth_Date: 23-Apr-1891
!!!Audio_Example_Quarter_Note_Tempo:
!!!Audio_Example_Duration:
!!!EEV2: 2022/02/24
